X: 071
T: One Choppin mair, a Reel
C: attr. John French (1753-1803)
R: reel
B: "John French Collection", John French ed. p.7 #1
S: http://www.heallan.com/french.asp
Z: 2012 John Chambers <jc:trillian.mit.edu>
M: C
L: 1/8
K: D
F | (A,D/E/)FD ADFD | GBFA BE-EF | (A,D/E/F)D ADFD | GEge fd-d :|
f | (d>ed)A dfaf | gefd Be-ef | (d>ed)A dfaf | gebg fd-d ||
f | (d>ed)A dfaf | gefd Be-ef | dAFD GBA=c | B(bag) fdd |]

%%sep 2 1 500
%%sep 1 1 500

